report_00007_2020-12-11T15:55:29.892Z/speed-index/comparison/line/9_vs_10.svg

<svg width="640" height="490" xmlns="http://www.w3.org/2000/svg" xmlns:xlink="http://www.w3.org/1999/xlink"><path fill="#fff" d="M0 0h640v490H0z"/><defs><path id="d" stroke-width=".222" stroke="currentColor" d="M-1-1h2v2h-2z"/><path id="b" stroke-width=".222" stroke="currentColor" d="M0-1.33l-1.33 2h2.66z"/><path id="f" stroke-width=".222" stroke="currentColor" d="M0 1.33L1.265.411.782-1.067l-1.564-.009-.483 1.487z"/><use xlink:href="#b" id="c" stroke="currentColor" transform="rotate(180)"/><use xlink:href="#d" id="e" stroke="currentColor" transform="rotate(45)"/><circle id="a" stroke-width=".222" stroke="currentColor" cx="0" cy="0" r="1"/></defs><g fill="none" color="#000" stroke="currentColor"><path stroke="#000" d="M62.2 416.7h9m543.8 0h-9"/><text transform="translate(53.9 420.6)" stroke="none" fill="#000" font-family="Arial" font-size="12" text-anchor="end"><tspan>1664</tspan></text></g><g fill="none" color="#000" stroke="currentColor"><path stroke="#000" d="M62.2 374h9m543.8 0h-9"/><text transform="translate(53.9 377.9)" stroke="none" fill="#000" font-family="Arial" font-size="12" text-anchor="end"><tspan>1665</tspan></text></g><g fill="none" color="#000" stroke="currentColor"><path stroke="#000" d="M62.2 331.3h9m543.8 0h-9"/><text transform="translate(53.9 335.2)" stroke="none" fill="#000" font-family="Arial" font-size="12" text-anchor="end"><tspan>1666</tspan></text></g><g fill="none" color="#000" stroke="currentColor"><path stroke="#000" d="M62.2 288.6h9m543.8 0h-9"/><text transform="translate(53.9 292.5)" stroke="none" fill="#000" font-family="Arial" font-size="12" text-anchor="end"><tspan>1667</tspan></text></g><g fill="none" color="#000" stroke="currentColor"><path stroke="#000" d="M62.2 245.8h9m543.8 0h-9"/><text transform="translate(53.9 249.7)" stroke="none" fill="#000" font-family="Arial" font-size="12" text-anchor="end"><tspan>1668</tspan></text></g><g fill="none" color="#000" stroke="currentColor"><path stroke="#000" d="M62.2 203.1h9m543.8 0h-9"/><text transform="translate(53.9 207)" stroke="none" fill="#000" font-family="Arial" font-size="12" text-anchor="end"><tspan>1669</tspan></text></g><g fill="none" color="#000" stroke="currentColor"><path stroke="#000" d="M62.2 160.4h9m543.8 0h-9"/><text transform="translate(53.9 164.3)" stroke="none" fill="#000" font-family="Arial" font-size="12" text-anchor="end"><tspan>1670</tspan></text></g><g fill="none" color="#000" stroke="currentColor"><path stroke="#000" d="M62.2 117.7h9m543.8 0h-9"/><text transform="translate(53.9 121.6)" stroke="none" fill="#000" font-family="Arial" font-size="12" text-anchor="end"><tspan>1671</tspan></text></g><g fill="none" color="#000" stroke="currentColor"><path stroke="#000" d="M62.2 75h9M615 75h-9"/><text transform="translate(53.9 78.9)" stroke="none" fill="#000" font-family="Arial" font-size="12" text-anchor="end"><tspan>1672</tspan></text></g><g fill="none" color="#000" stroke="currentColor"><path stroke="#000" d="M62.2 32.2h9m543.8 0h-9"/><text transform="translate(53.9 36.1)" stroke="none" fill="#000" font-family="Arial" font-size="12" text-anchor="end"><tspan>1673</tspan></text></g><g fill="none" color="#000" stroke="currentColor"><path stroke="#000" d="M62.2 418v-9m0-390.9v9"/><text transform="translate(62.2 439.9)" stroke="none" fill="#000" font-family="Arial" font-size="12" text-anchor="middle"><tspan>0</tspan></text></g><g fill="none" color="#000" stroke="currentColor"><path stroke="#000" d="M118 418v-9m0-390.9v9"/><text transform="translate(118 439.9)" stroke="none" fill="#000" font-family="Arial" font-size="12" text-anchor="middle"><tspan>10</tspan></text></g><g fill="none" color="#000" stroke="currentColor"><path stroke="#000" d="M173.9 418v-9m0-390.9v9"/><text transform="translate(173.9 439.9)" stroke="none" fill="#000" font-family="Arial" font-size="12" text-anchor="middle"><tspan>20</tspan></text></g><g fill="none" color="#000" stroke="currentColor"><path stroke="#000" d="M229.7 418v-9m0-390.9v9"/><text transform="translate(229.7 439.9)" stroke="none" fill="#000" font-family="Arial" font-size="12" text-anchor="middle"><tspan>30</tspan></text></g><g fill="none" color="#000" stroke="currentColor"><path stroke="#000" d="M285.6 418v-9m0-390.9v9"/><text transform="translate(285.6 439.9)" stroke="none" fill="#000" font-family="Arial" font-size="12" text-anchor="middle"><tspan>40</tspan></text></g><g fill="none" color="#000" stroke="currentColor"><path stroke="#000" d="M341.4 418v-9m0-390.9v9"/><text transform="translate(341.4 439.9)" stroke="none" fill="#000" font-family="Arial" font-size="12" text-anchor="middle"><tspan>50</tspan></text></g><g fill="none" color="#000" stroke="currentColor"><path stroke="#000" d="M397.2 418v-9m0-390.9v9"/><text transform="translate(397.2 439.9)" stroke="none" fill="#000" font-family="Arial" font-size="12" text-anchor="middle"><tspan>60</tspan></text></g><g fill="none" color="#000" stroke="currentColor"><path stroke="#000" d="M453.1 418v-9m0-390.9v9"/><text transform="translate(453.1 439.9)" stroke="none" fill="#000" font-family="Arial" font-size="12" text-anchor="middle"><tspan>70</tspan></text></g><g fill="none" color="#000" stroke="currentColor"><path stroke="#000" d="M508.9 418v-9m0-390.9v9"/><text transform="translate(508.9 439.9)" stroke="none" fill="#000" font-family="Arial" font-size="12" text-anchor="middle"><tspan>80</tspan></text></g><g fill="none" color="#000" stroke="currentColor"><path stroke="#000" d="M564.7 418v-9m0-390.9v9"/><text transform="translate(564.7 439.9)" stroke="none" fill="#000" font-family="Arial" font-size="12" text-anchor="middle"><tspan>90</tspan></text></g><path stroke="#000" d="M62.2 18.1V418H615V18.1H62.2z" fill="none" color="#000"/><text transform="translate(279.8 457.9)" stroke="none" fill="#000" font-family="Arial" font-size="12" text-anchor="end" color="#000"><tspan>pages+cached+noexternal+nocss</tspan></text><path stroke="#9400D3" d="M288.1 454h42.2M62.2 240.3l5.6 36.2 5.6-41.8 5.6 93.8 5.5-172.3 5.6 35.3 5.6 90.1 5.6 95.3 5.6-134.6 5.6 12 5.5-53.2 5.6 24.2 5.6-39.6 5.6 60.5 5.6-32.1 5.6 20.8 5.5 6.2 5.6 47.6 5.6-55.5 5.6-161.9 5.6 89.1 5.6 132.1 5.5-129.3 5.6 25.3 5.6 129.6 5.6 26.6 5.6-160L213 25.8l5.5 241.7 5.6-77.6 5.6-46.7 5.6 63.7 5.6 48.2 5.6-22.1 5.6-31.3 5.5-156.8 5.6 189.9 5.6 6.5 5.6-36.6 5.6 169 5.6-15.7 5.5-107.8 5.6 160.1 5.6-172.6 5.6 31.7 5.6 69.7 5.6-22.8 5.5-12.7 5.6-243 5.6 253.3 5.6-12.5 5.6-53.2 5.6-10.2 5.5-19.4 5.6-69.5 5.6 22.8 5.6 213.9 5.6-157.7 5.6 64.4 5.5 2.4 5.6 49.3 5.6-52.6 5.6 23.1 5.6-105.2 5.6 9.6 5.5 28.5 5.6-112.2 5.6 79.1 5.6-25.3 5.6 13 5.6 195.9 5.6-208.6 5.5 45.1 5.6-25.9 5.6-20.7 5.6 57 5.6-97 5.6 8.9 5.5 65.9 5.6-19.1 5.6 118.9 5.6-144.5 5.6 56.1 5.6-18 5.5 21 5.6 127.7 5.6-146.5 5.6 47.1 5.6-115 5.6 188.8 5.5-66 5.6-47 5.6 3.3 5.6 100.6 5.6-62.9 5.6-1.4 5.5-51 5.6 7.6 5.6-6.9 5.6-32.8" fill="none" color="#000"/><text transform="translate(279.8 475.9)" stroke="none" fill="#000" font-family="Arial" font-size="12" text-anchor="end" color="#000"><tspan>score p10=3387</tspan></text><path stroke="#009E73" d="M288.1 472h42.2" fill="none" color="#000"/><text transform="translate(579.3 457.9)" stroke="none" fill="#000" font-family="Arial" font-size="12" text-anchor="end" color="#000"><tspan>score median=5800</tspan></text><path stroke="#56B4E9" d="M587.6 454h42.2" fill="none" color="#000"/><g fill="none" color="#000" stroke="currentColor"><path stroke="#000" d="M62.2 18.1V418H615V18.1H62.2z"/></g></svg>

<?xml version="1.0" encoding="utf-8"  standalone="no"?>
<svg 
 width="640" height="490"
 viewBox="0 0 640 490"
 xmlns="http://www.w3.org/2000/svg"
 xmlns:xlink="http://www.w3.org/1999/xlink"
>

<title>Gnuplot</title>
<desc>Produced by GNUPLOT 5.4 patchlevel 0 </desc>

<g id="gnuplot_canvas">

<rect x="0" y="0" width="640" height="490" fill="#ffffff"/>
<defs>

	<circle id='gpDot' r='0.5' stroke-width='0.5' stroke='currentColor'/>
	<path id='gpPt0' stroke-width='0.222' stroke='currentColor' d='M-1,0 h2 M0,-1 v2'/>
	<path id='gpPt1' stroke-width='0.222' stroke='currentColor' d='M-1,-1 L1,1 M1,-1 L-1,1'/>
	<path id='gpPt2' stroke-width='0.222' stroke='currentColor' d='M-1,0 L1,0 M0,-1 L0,1 M-1,-1 L1,1 M-1,1 L1,-1'/>
	<rect id='gpPt3' stroke-width='0.222' stroke='currentColor' x='-1' y='-1' width='2' height='2'/>
	<rect id='gpPt4' stroke-width='0.222' stroke='currentColor' fill='currentColor' x='-1' y='-1' width='2' height='2'/>
	<circle id='gpPt5' stroke-width='0.222' stroke='currentColor' cx='0' cy='0' r='1'/>
	<use xlink:href='#gpPt5' id='gpPt6' fill='currentColor' stroke='none'/>
	<path id='gpPt7' stroke-width='0.222' stroke='currentColor' d='M0,-1.33 L-1.33,0.67 L1.33,0.67 z'/>
	<use xlink:href='#gpPt7' id='gpPt8' fill='currentColor' stroke='none'/>
	<use xlink:href='#gpPt7' id='gpPt9' stroke='currentColor' transform='rotate(180)'/>
	<use xlink:href='#gpPt9' id='gpPt10' fill='currentColor' stroke='none'/>
	<use xlink:href='#gpPt3' id='gpPt11' stroke='currentColor' transform='rotate(45)'/>
	<use xlink:href='#gpPt11' id='gpPt12' fill='currentColor' stroke='none'/>
	<path id='gpPt13' stroke-width='0.222' stroke='currentColor' d='M0,1.330 L1.265,0.411 L0.782,-1.067 L-0.782,-1.076 L-1.265,0.411 z'/>
	<use xlink:href='#gpPt13' id='gpPt14' fill='currentColor' stroke='none'/>
	<filter id='textbox' filterUnits='objectBoundingBox' x='0' y='0' height='1' width='1'>
	  <feFlood flood-color='#FFFFFF' flood-opacity='1' result='bgnd'/>
	  <feComposite in='SourceGraphic' in2='bgnd' operator='atop'/>
	</filter>
	<filter id='greybox' filterUnits='objectBoundingBox' x='0' y='0' height='1' width='1'>
	  <feFlood flood-color='lightgrey' flood-opacity='1' result='grey'/>
	  <feComposite in='SourceGraphic' in2='grey' operator='atop'/>
	</filter>
</defs>
<g fill="none" color="#FFFFFF" stroke="black" stroke-width="1.00" stroke-linecap="butt" stroke-linejoin="miter">
</g>
<g fill="none" color="black" stroke="currentColor" stroke-width="1.00" stroke-linecap="butt" stroke-linejoin="miter">
	<path stroke='black'  d='M62.2,416.7 L71.2,416.7 M615.0,416.7 L606.0,416.7  '/>	<g transform="translate(53.9,420.6)" stroke="none" fill="black" font-family="Arial" font-size="12.00"  text-anchor="end">
		<text><tspan font-family="Arial" > 1664</tspan></text>
	</g>
</g>
<g fill="none" color="black" stroke="currentColor" stroke-width="1.00" stroke-linecap="butt" stroke-linejoin="miter">
	<path stroke='black'  d='M62.2,374.0 L71.2,374.0 M615.0,374.0 L606.0,374.0  '/>	<g transform="translate(53.9,377.9)" stroke="none" fill="black" font-family="Arial" font-size="12.00"  text-anchor="end">
		<text><tspan font-family="Arial" > 1665</tspan></text>
	</g>
</g>
<g fill="none" color="black" stroke="currentColor" stroke-width="1.00" stroke-linecap="butt" stroke-linejoin="miter">
	<path stroke='black'  d='M62.2,331.3 L71.2,331.3 M615.0,331.3 L606.0,331.3  '/>	<g transform="translate(53.9,335.2)" stroke="none" fill="black" font-family="Arial" font-size="12.00"  text-anchor="end">
		<text><tspan font-family="Arial" > 1666</tspan></text>
	</g>
</g>
<g fill="none" color="black" stroke="currentColor" stroke-width="1.00" stroke-linecap="butt" stroke-linejoin="miter">
	<path stroke='black'  d='M62.2,288.6 L71.2,288.6 M615.0,288.6 L606.0,288.6  '/>	<g transform="translate(53.9,292.5)" stroke="none" fill="black" font-family="Arial" font-size="12.00"  text-anchor="end">
		<text><tspan font-family="Arial" > 1667</tspan></text>
	</g>
</g>
<g fill="none" color="black" stroke="currentColor" stroke-width="1.00" stroke-linecap="butt" stroke-linejoin="miter">
	<path stroke='black'  d='M62.2,245.8 L71.2,245.8 M615.0,245.8 L606.0,245.8  '/>	<g transform="translate(53.9,249.7)" stroke="none" fill="black" font-family="Arial" font-size="12.00"  text-anchor="end">
		<text><tspan font-family="Arial" > 1668</tspan></text>
	</g>
</g>
<g fill="none" color="black" stroke="currentColor" stroke-width="1.00" stroke-linecap="butt" stroke-linejoin="miter">
	<path stroke='black'  d='M62.2,203.1 L71.2,203.1 M615.0,203.1 L606.0,203.1  '/>	<g transform="translate(53.9,207.0)" stroke="none" fill="black" font-family="Arial" font-size="12.00"  text-anchor="end">
		<text><tspan font-family="Arial" > 1669</tspan></text>
	</g>
</g>
<g fill="none" color="black" stroke="currentColor" stroke-width="1.00" stroke-linecap="butt" stroke-linejoin="miter">
	<path stroke='black'  d='M62.2,160.4 L71.2,160.4 M615.0,160.4 L606.0,160.4  '/>	<g transform="translate(53.9,164.3)" stroke="none" fill="black" font-family="Arial" font-size="12.00"  text-anchor="end">
		<text><tspan font-family="Arial" > 1670</tspan></text>
	</g>
</g>
<g fill="none" color="black" stroke="currentColor" stroke-width="1.00" stroke-linecap="butt" stroke-linejoin="miter">
	<path stroke='black'  d='M62.2,117.7 L71.2,117.7 M615.0,117.7 L606.0,117.7  '/>	<g transform="translate(53.9,121.6)" stroke="none" fill="black" font-family="Arial" font-size="12.00"  text-anchor="end">
		<text><tspan font-family="Arial" > 1671</tspan></text>
	</g>
</g>
<g fill="none" color="black" stroke="currentColor" stroke-width="1.00" stroke-linecap="butt" stroke-linejoin="miter">
	<path stroke='black'  d='M62.2,75.0 L71.2,75.0 M615.0,75.0 L606.0,75.0  '/>	<g transform="translate(53.9,78.9)" stroke="none" fill="black" font-family="Arial" font-size="12.00"  text-anchor="end">
		<text><tspan font-family="Arial" > 1672</tspan></text>
	</g>
</g>
<g fill="none" color="black" stroke="currentColor" stroke-width="1.00" stroke-linecap="butt" stroke-linejoin="miter">
	<path stroke='black'  d='M62.2,32.2 L71.2,32.2 M615.0,32.2 L606.0,32.2  '/>	<g transform="translate(53.9,36.1)" stroke="none" fill="black" font-family="Arial" font-size="12.00"  text-anchor="end">
		<text><tspan font-family="Arial" > 1673</tspan></text>
	</g>
</g>
<g fill="none" color="black" stroke="currentColor" stroke-width="1.00" stroke-linecap="butt" stroke-linejoin="miter">
	<path stroke='black'  d='M62.2,418.0 L62.2,409.0 M62.2,18.1 L62.2,27.1  '/>	<g transform="translate(62.2,439.9)" stroke="none" fill="black" font-family="Arial" font-size="12.00"  text-anchor="middle">
		<text><tspan font-family="Arial" > 0</tspan></text>
	</g>
</g>
<g fill="none" color="black" stroke="currentColor" stroke-width="1.00" stroke-linecap="butt" stroke-linejoin="miter">
	<path stroke='black'  d='M118.0,418.0 L118.0,409.0 M118.0,18.1 L118.0,27.1  '/>	<g transform="translate(118.0,439.9)" stroke="none" fill="black" font-family="Arial" font-size="12.00"  text-anchor="middle">
		<text><tspan font-family="Arial" > 10</tspan></text>
	</g>
</g>
<g fill="none" color="black" stroke="currentColor" stroke-width="1.00" stroke-linecap="butt" stroke-linejoin="miter">
	<path stroke='black'  d='M173.9,418.0 L173.9,409.0 M173.9,18.1 L173.9,27.1  '/>	<g transform="translate(173.9,439.9)" stroke="none" fill="black" font-family="Arial" font-size="12.00"  text-anchor="middle">
		<text><tspan font-family="Arial" > 20</tspan></text>
	</g>
</g>
<g fill="none" color="black" stroke="currentColor" stroke-width="1.00" stroke-linecap="butt" stroke-linejoin="miter">
	<path stroke='black'  d='M229.7,418.0 L229.7,409.0 M229.7,18.1 L229.7,27.1  '/>	<g transform="translate(229.7,439.9)" stroke="none" fill="black" font-family="Arial" font-size="12.00"  text-anchor="middle">
		<text><tspan font-family="Arial" > 30</tspan></text>
	</g>
</g>
<g fill="none" color="black" stroke="currentColor" stroke-width="1.00" stroke-linecap="butt" stroke-linejoin="miter">
	<path stroke='black'  d='M285.6,418.0 L285.6,409.0 M285.6,18.1 L285.6,27.1  '/>	<g transform="translate(285.6,439.9)" stroke="none" fill="black" font-family="Arial" font-size="12.00"  text-anchor="middle">
		<text><tspan font-family="Arial" > 40</tspan></text>
	</g>
</g>
<g fill="none" color="black" stroke="currentColor" stroke-width="1.00" stroke-linecap="butt" stroke-linejoin="miter">
	<path stroke='black'  d='M341.4,418.0 L341.4,409.0 M341.4,18.1 L341.4,27.1  '/>	<g transform="translate(341.4,439.9)" stroke="none" fill="black" font-family="Arial" font-size="12.00"  text-anchor="middle">
		<text><tspan font-family="Arial" > 50</tspan></text>
	</g>
</g>
<g fill="none" color="black" stroke="currentColor" stroke-width="1.00" stroke-linecap="butt" stroke-linejoin="miter">
	<path stroke='black'  d='M397.2,418.0 L397.2,409.0 M397.2,18.1 L397.2,27.1  '/>	<g transform="translate(397.2,439.9)" stroke="none" fill="black" font-family="Arial" font-size="12.00"  text-anchor="middle">
		<text><tspan font-family="Arial" > 60</tspan></text>
	</g>
</g>
<g fill="none" color="black" stroke="currentColor" stroke-width="1.00" stroke-linecap="butt" stroke-linejoin="miter">
	<path stroke='black'  d='M453.1,418.0 L453.1,409.0 M453.1,18.1 L453.1,27.1  '/>	<g transform="translate(453.1,439.9)" stroke="none" fill="black" font-family="Arial" font-size="12.00"  text-anchor="middle">
		<text><tspan font-family="Arial" > 70</tspan></text>
	</g>
</g>
<g fill="none" color="black" stroke="currentColor" stroke-width="1.00" stroke-linecap="butt" stroke-linejoin="miter">
	<path stroke='black'  d='M508.9,418.0 L508.9,409.0 M508.9,18.1 L508.9,27.1  '/>	<g transform="translate(508.9,439.9)" stroke="none" fill="black" font-family="Arial" font-size="12.00"  text-anchor="middle">
		<text><tspan font-family="Arial" > 80</tspan></text>
	</g>
</g>
<g fill="none" color="black" stroke="currentColor" stroke-width="1.00" stroke-linecap="butt" stroke-linejoin="miter">
	<path stroke='black'  d='M564.7,418.0 L564.7,409.0 M564.7,18.1 L564.7,27.1  '/>	<g transform="translate(564.7,439.9)" stroke="none" fill="black" font-family="Arial" font-size="12.00"  text-anchor="middle">
		<text><tspan font-family="Arial" > 90</tspan></text>
	</g>
</g>
<g fill="none" color="black" stroke="currentColor" stroke-width="1.00" stroke-linecap="butt" stroke-linejoin="miter">
</g>
<g fill="none" color="black" stroke="currentColor" stroke-width="1.00" stroke-linecap="butt" stroke-linejoin="miter">
	<path stroke='black'  d='M62.2,18.1 L62.2,418.0 L615.0,418.0 L615.0,18.1 L62.2,18.1 Z  '/></g>
<g fill="none" color="black" stroke="currentColor" stroke-width="1.00" stroke-linecap="butt" stroke-linejoin="miter">
</g>
	<g id="gnuplot_plot_1" ><title>pages+cached+noexternal+nocss</title>
<g fill="none" color="black" stroke="currentColor" stroke-width="1.00" stroke-linecap="butt" stroke-linejoin="miter">
	<g transform="translate(279.8,457.9)" stroke="none" fill="black" font-family="Arial" font-size="12.00"  text-anchor="end">
		<text><tspan font-family="Arial" >pages+cached+noexternal+nocss</tspan></text>
	</g>
</g>
<g fill="none" color="black" stroke="currentColor" stroke-width="1.00" stroke-linecap="butt" stroke-linejoin="miter">
	<path stroke='rgb(148,   0, 211)'  d='M288.1,454.0 L330.3,454.0 M62.2,240.3 L67.8,276.5 L73.4,234.7 L79.0,328.5 L84.5,156.2 L90.1,191.5
		L95.7,281.6 L101.3,376.9 L106.9,242.3 L112.5,254.3 L118.0,201.1 L123.6,225.3 L129.2,185.7 L134.8,246.2
		L140.4,214.1 L146.0,234.9 L151.5,241.1 L157.1,288.7 L162.7,233.2 L168.3,71.3 L173.9,160.4 L179.5,292.5
		L185.0,163.2 L190.6,188.5 L196.2,318.1 L201.8,344.7 L207.4,184.7 L213.0,25.8 L218.5,267.5 L224.1,189.9
		L229.7,143.2 L235.3,206.9 L240.9,255.1 L246.5,233.0 L252.1,201.7 L257.6,44.9 L263.2,234.8 L268.8,241.3
		L274.4,204.7 L280.0,373.7 L285.6,358.0 L291.1,250.2 L296.7,410.3 L302.3,237.7 L307.9,269.4 L313.5,339.1
		L319.1,316.3 L324.6,303.6 L330.2,60.6 L335.8,313.9 L341.4,301.4 L347.0,248.2 L352.6,238.0 L358.1,218.6
		L363.7,149.1 L369.3,171.9 L374.9,385.8 L380.5,228.1 L386.1,292.5 L391.6,294.9 L397.2,344.2 L402.8,291.6
		L408.4,314.7 L414.0,209.5 L419.6,219.1 L425.1,247.6 L430.7,135.4 L436.3,214.5 L441.9,189.2 L447.5,202.2
		L453.1,398.1 L458.7,189.5 L464.2,234.6 L469.8,208.7 L475.4,188.0 L481.0,245.0 L486.6,148.0 L492.2,156.9
		L497.7,222.8 L503.3,203.7 L508.9,322.6 L514.5,178.1 L520.1,234.2 L525.7,216.2 L531.2,237.2 L536.8,364.9
		L542.4,218.4 L548.0,265.5 L553.6,150.5 L559.2,339.3 L564.7,273.3 L570.3,226.3 L575.9,229.6 L581.5,330.2
		L587.1,267.3 L592.7,265.9 L598.2,214.9 L603.8,222.5 L609.4,215.6 L615.0,182.8  '/></g>
	</g>
	<g id="gnuplot_plot_2" ><title>score p10=3387</title>
<g fill="none" color="black" stroke="currentColor" stroke-width="1.00" stroke-linecap="butt" stroke-linejoin="miter">
	<g transform="translate(279.8,475.9)" stroke="none" fill="black" font-family="Arial" font-size="12.00"  text-anchor="end">
		<text><tspan font-family="Arial" >score p10=3387</tspan></text>
	</g>
</g>
<g fill="none" color="black" stroke="currentColor" stroke-width="1.00" stroke-linecap="butt" stroke-linejoin="miter">
	<path stroke='rgb(  0, 158, 115)'  d='M288.1,472.0 L330.3,472.0  '/></g>
	</g>
	<g id="gnuplot_plot_3" ><title>score median=5800</title>
<g fill="none" color="black" stroke="currentColor" stroke-width="1.00" stroke-linecap="butt" stroke-linejoin="miter">
	<g transform="translate(579.3,457.9)" stroke="none" fill="black" font-family="Arial" font-size="12.00"  text-anchor="end">
		<text><tspan font-family="Arial" >score median=5800</tspan></text>
	</g>
</g>
<g fill="none" color="black" stroke="currentColor" stroke-width="1.00" stroke-linecap="butt" stroke-linejoin="miter">
	<path stroke='rgb( 86, 180, 233)'  d='M587.6,454.0 L629.8,454.0  '/></g>
	</g>
<g fill="none" color="#FFFFFF" stroke="rgb( 86, 180, 233)" stroke-width="2.00" stroke-linecap="butt" stroke-linejoin="miter">
</g>
<g fill="none" color="black" stroke="currentColor" stroke-width="2.00" stroke-linecap="butt" stroke-linejoin="miter">
</g>
<g fill="none" color="black" stroke="black" stroke-width="1.00" stroke-linecap="butt" stroke-linejoin="miter">
</g>
<g fill="none" color="black" stroke="currentColor" stroke-width="1.00" stroke-linecap="butt" stroke-linejoin="miter">
	<path stroke='black'  d='M62.2,18.1 L62.2,418.0 L615.0,418.0 L615.0,18.1 L62.2,18.1 Z  '/></g>
<g fill="none" color="black" stroke="currentColor" stroke-width="1.00" stroke-linecap="butt" stroke-linejoin="miter">
</g>
</g>
</svg>
